X:1
T:Male Choir template - four staves
T:Social Song
%%score [ 1 2 3 4 ]
L:1/8
M:4/4
K:C
V:1 treble-8 nm="Tenor 1"
V:2 treble-8 nm="Tenor 2"
V:3 bass nm="Bass 1"
V:4 bass nm="Bass 2"
V:1
 G2 | e2 e2 e2 d2 | (d2 c2) c2 G2 | f2 f2 (e>d) (e>f) | d4 z2 g2 | g3 e f2 f2 | f3 d e2 c2 | %7
w: At|ev- ry cho- ral|meet- * ing This|cho- rus shall _ be _|sung; In|this, our friend- ly|greet- * ing, Sing|
 B2 c2 (ed) (cB) | c4 z2 |] %9
w: all, both old _ and _|young.|
V:2
 G2 | c2 c2 c2 B2 | (B2 c2) c2 G2 | d2 d2 (c>B) (c>d) | B4 z2 e2 | e3 c d2 d2 | d3 B c2 G2 | %7
w: At|ev- ry cho- ral|meet- * ing This|cho- rus shall _ be _|sung; In|this, our friend- ly|greet- * ing, Sing|
 G2 G2 G2 G2 | G4 z2 |] %9
w: all, both old and|young.|
V:3
 E,2 | G,2 G,2 G,2 F,2 | (F,2 E,2) E,2 E,2 | G,2 G,2 G,2 G,2 | G,4 z2 G,2 | G,3 C B,2 B,2 | %6
w: At|ev- ry cho- ral|meet- * ing This|cho- rus shall be|sung; In|this, our friend- ly|
 B,3 D C2 G,2 | G,2 G,2 (G,F,) (E,D,) | E,4 z2 |] %9
w: greet- * ing, Sing|all, both old _ and _|young.|
V:4
 C,2 | C,2 E,2 G,2 G,,2 | C,4 C,2 C,2 | B,,2 B,,2 C,2 C,2 | G,,4 z2 G,2 | %5
w: At|ev- ry cho- ral|meet- ing This|cho- rus shall be|sung; In|
"_2. Let no vexatious trifle our friendship disunite; All jealousy we'll stifle, And give each man his right.\n\n3. Tonight let us be merry, Let no one shrink or fail; If we've no port or sherry, Why then - we'll have good ale.\n\n4. With water and with brandy let each man fill his glass, Then keep it near and handy, To toast his fav'rite lass.\n\n5. Each member now rejoices - Our bond is firm and fast, Good hearts and tuneful voices, Our union's sure to last.\n\n" G,3 G, G,2 G,2 | %6
w: this, our friend- ly|
 G,4 C,2 E,2 | G,2 (E,C,) G,,2 G,,2 | C,4 z2 |] %9
w: greet- ing, Sing|all, both _ old and|young.|

